svgs/thin/folders.svg

<svg xmlns="http://www.w3.org/2000/svg" viewBox="0 0 576 512"><!--! Font Awesome Pro 6.6.0 by @fontawesome - https://fontawesome.com License - https://fontawesome.com/license (Commercial License) Copyright 2024 Fonticons, Inc. --><path d="M512 368l-352 0c-26.5 0-48-21.5-48-48l0-224c0-26.5 21.5-48 48-48l117.5 0c12.7 0 24.9 5.1 33.9 14.1l26.5 26.5c15 15 35.4 23.4 56.6 23.4L512 112c26.5 0 48 21.5 48 48l0 160c0 26.5-21.5 48-48 48zM160 384l352 0c35.3 0 64-28.7 64-64l0-160c0-35.3-28.7-64-64-64L394.5 96c-17 0-33.3-6.7-45.3-18.7L322.7 50.7c-12-12-28.3-18.7-45.3-18.7L160 32c-35.3 0-64 28.7-64 64l0 224c0 35.3 28.7 64 64 64zM0 192L0 416c0 35.3 28.7 64 64 64l352 0c35.3 0 64-28.7 64-64l-16 0c0 26.5-21.5 48-48 48L64 464c-26.5 0-48-21.5-48-48l0-224c0-26.5 21.5-48 48-48l0-16c-35.3 0-64 28.7-64 64z"/></svg>

<svg xmlns="http://www.w3.org/2000/svg" viewBox="0 0 576 512"><!--! Font Awesome Pro 6.4.0 by @fontawesome - https://fontawesome.com License - https://fontawesome.com/license (Commercial License) Copyright 2023 Fonticons, Inc. --><path d="M512 368H160c-26.5 0-48-21.5-48-48V96c0-26.5 21.5-48 48-48H277.5c12.7 0 24.9 5.1 33.9 14.1l26.5 26.5c15 15 35.4 23.4 56.6 23.4H512c26.5 0 48 21.5 48 48V320c0 26.5-21.5 48-48 48zM160 384H512c35.3 0 64-28.7 64-64V160c0-35.3-28.7-64-64-64H394.5c-17 0-33.3-6.7-45.3-18.7L322.7 50.7c-12-12-28.3-18.7-45.3-18.7H160c-35.3 0-64 28.7-64 64V320c0 35.3 28.7 64 64 64zM0 192V416c0 35.3 28.7 64 64 64H416c35.3 0 64-28.7 64-64H464c0 26.5-21.5 48-48 48H64c-26.5 0-48-21.5-48-48V192c0-26.5 21.5-48 48-48V128c-35.3 0-64 28.7-64 64z"/></svg>
